src/assets/info.svg

<svg width="16" height="19" viewBox="0 0 16 19" fill="none" xmlns="http://www.w3.org/2000/svg">
<path d="M7.232 12.232V7H8.768V12.232H7.232ZM8.016 6.424C7.77067 6.424 7.568 6.36533 7.408 6.248C7.248 6.13067 7.168 5.944 7.168 5.688C7.168 5.4 7.248 5.208 7.408 5.112C7.568 5.00533 7.77067 4.952 8.016 4.952C8.22933 4.952 8.416 5.00533 8.576 5.112C8.74667 5.208 8.832 5.4 8.832 5.688C8.832 5.95467 8.74667 6.14667 8.576 6.264C8.416 6.37067 8.22933 6.424 8.016 6.424ZM8 16.216C7.04 16.216 6.13867 16.0347 5.296 15.672C4.464 15.32 3.728 14.8293 3.088 14.2C2.45867 13.56 1.96267 12.824 1.6 11.992C1.248 11.1493 1.072 10.248 1.072 9.288C1.072 8.328 1.248 7.432 1.6 6.6C1.96267 5.75733 2.45867 5.02133 3.088 4.392C3.728 3.752 4.464 3.256 5.296 2.904C6.13867 2.54133 7.04 2.36 8 2.36C8.96 2.36 9.856 2.54133 10.688 2.904C11.5307 3.256 12.2667 3.752 12.896 4.392C13.536 5.02133 14.032 5.75733 14.384 6.6C14.7467 7.432 14.928 8.328 14.928 9.288C14.928 10.248 14.7467 11.1493 14.384 11.992C14.032 12.824 13.536 13.56 12.896 14.2C12.2667 14.8293 11.5307 15.32 10.688 15.672C9.856 16.0347 8.96 16.216 8 16.216ZM8 14.792C8.768 14.792 9.48267 14.6533 10.144 14.376C10.8053 14.088 11.3867 13.6933 11.888 13.192C12.4 12.68 12.7947 12.0933 13.072 11.432C13.36 10.76 13.504 10.0453 13.504 9.288C13.504 8.52 13.36 7.80533 13.072 7.144C12.7947 6.48267 12.4 5.90133 11.888 5.4C11.3867 4.888 10.8 4.49333 10.128 4.216C9.46667 3.928 8.75733 3.784 8 3.784C7.232 3.784 6.51733 3.928 5.856 4.216C5.19467 4.49333 4.608 4.888 4.096 5.4C3.59467 5.90133 3.2 6.488 2.912 7.16C2.63467 7.82133 2.496 8.53067 2.496 9.288C2.496 10.056 2.63467 10.7707 2.912 11.432C3.2 12.0933 3.59467 12.68 4.096 13.192C4.608 13.6933 5.19467 14.088 5.856 14.376C6.528 14.6533 7.24267 14.792 8 14.792Z" fill="#43B25B"/>
</svg>

<?xml version="1.0" encoding="utf-8"?>
<!-- Generator: Adobe Illustrator 26.3.1, SVG Export Plug-In . SVG Version: 6.00 Build 0)  -->
<svg version="1.1" id="Layer_1" xmlns="http://www.w3.org/2000/svg" xmlns:xlink="http://www.w3.org/1999/xlink" x="0px" y="0px"
	 viewBox="0 0 16 19" style="enable-background:new 0 0 16 19;" xml:space="preserve">
<style type="text/css">
	.st0{fill:#73EDC9;fill-opacity:0.3;}
</style>
<path class="st0" d="M7.2,12.2V7h1.5v5.2H7.2z M8,6.4c-0.2,0-0.4-0.1-0.6-0.2S7.2,5.9,7.2,5.7c0-0.3,0.1-0.5,0.2-0.6
	C7.6,5,7.8,5,8,5C8.2,5,8.4,5,8.6,5.1c0.2,0.1,0.3,0.3,0.3,0.6c0,0.3-0.1,0.5-0.3,0.6C8.4,6.4,8.2,6.4,8,6.4z M8,16.2
	c-1,0-1.9-0.2-2.7-0.5c-0.8-0.4-1.6-0.8-2.2-1.5C2.5,13.6,2,12.8,1.6,12c-0.4-0.8-0.5-1.7-0.5-2.7s0.2-1.9,0.5-2.7
	C2,5.8,2.5,5,3.1,4.4c0.6-0.6,1.4-1.1,2.2-1.5C6.1,2.5,7,2.4,8,2.4s1.9,0.2,2.7,0.5c0.8,0.4,1.6,0.8,2.2,1.5C13.5,5,14,5.8,14.4,6.6
	c0.4,0.8,0.5,1.7,0.5,2.7s-0.2,1.9-0.5,2.7c-0.4,0.8-0.8,1.6-1.5,2.2c-0.6,0.6-1.4,1.1-2.2,1.5C9.9,16,9,16.2,8,16.2z M8,14.8
	c0.8,0,1.5-0.1,2.1-0.4c0.7-0.3,1.2-0.7,1.7-1.2c0.5-0.5,0.9-1.1,1.2-1.8c0.3-0.7,0.4-1.4,0.4-2.1c0-0.8-0.1-1.5-0.4-2.1
	c-0.3-0.7-0.7-1.2-1.2-1.7c-0.5-0.5-1.1-0.9-1.8-1.2C9.5,3.9,8.8,3.8,8,3.8c-0.8,0-1.5,0.1-2.1,0.4C5.2,4.5,4.6,4.9,4.1,5.4
	C3.6,5.9,3.2,6.5,2.9,7.2C2.6,7.8,2.5,8.5,2.5,9.3c0,0.8,0.1,1.5,0.4,2.1c0.3,0.7,0.7,1.2,1.2,1.8c0.5,0.5,1.1,0.9,1.8,1.2
	C6.5,14.7,7.2,14.8,8,14.8z"/>
</svg>
